X:1
T:4 Songs, Op. 51
T:Wir drei (We Three)
T:4 Songs, Op. 51
T:Amy Marcy Beach
T:2. Wir drei We Three 
T:Hans Eschelbach English text by Isidora Martinez 
T:OpenScore (CC0)
T:OpenScore (CC0)
T:OpenScore (CC0)
T:OpenScore (CC0)
T:OpenScore (CC0)
T:OpenScore (CC0)
C:Amy Beach
Z:Hans Eschelbach
Z:OpenScore (CC0)
%%score 1 { ( 2 4 ) | ( 3 5 ) }
L:1/8
Q:1/4=126
M:3/4
K:Ab
V:1 treble nm="Voice"
V:2 treble nm="Piano"
V:4 treble 
V:3 bass 
V:5 bass 
V:1
"^Allegretto con legerezza" z6 | z2 z2!p! c2 | (B2 A2) G2 | B4 A2 | G6 | F2 z2!<(! F2 | d4 c2 | %7
w: |Wo|tief * ver-|steckt im|Grun-|de Der|Bach vor-|
w: |Deep|hid * in|sha- dy|val-|ley, All|fresh with|
 (c2!<)! B2) A2 | B6- | B2 z2"^più cresc." B2 | (e2 d2) c2 | B4 A2 |!mf! f6 | c2 z2 c2 | %14
w: ü- * ber|rauscht,|_ Hat|uns * in|still- er|Stun-|de Der|
w: morn- * ing|dew,|_ Where|tink- * ling|stream- lets|dal-|ly, Young|
 e4"^dim." e2 | c4 =d2 | =d6- | d2 z2 z2 | z2 z2!pp! G2 | ^G4 G2 | z2 =B2!<(! =A2 | =d4!<)! G2 | %22
w: jun- ge|Lenz be-|lauscht.|_|Er|frag- te|was wir|mach- ten,|
w: Love es-|pied us|two;|_|“Why|wait ye?”|said he|smil- ing,|
 z2 z2"^cresc." G2 | (=e2 =d2) e2 |[Q:1/4=122] f4"^rit." c2 | c4 z c | %26
w: Und|nick- * te|hold uns|zu; Wir|
w: “A-|rise! * your|pin- ions|try!” We|
"^a tempo"[Q:1/4=126] (c2 B2)"^cresc." A2 | e4 c2 |!f! (g4 f2) | c2 z2 c2 | (f2 e2) c2 | B4 A2 | %32
w: sah’n * uns|an und|lach- *|ten; Der|Lenz * und|ich und|
w: laugh’d, * our|way be-|guil- *|ing, Young|Love * and|you and|
!>(! (c4"^rall."[Q:1/4=122] e2- | e2)!>)! z2!p! c2 | _c6- |[Q:1/4=108] c2 z2"^più rall." _c2 | %36
w: du, _|_ Der|Lenz|_ und|
w: I, _|_ Young|Love|_ and|
 =c6- | c4!pp! E2 |"^a tempo"[Q:1/4=126]!>(! A6- | A6- | A2!>)! z2 z2 | z6 | z6 | z6 | z6 | z6 | %46
w: ich|_ und|du.|_|||||||
w: you|_ and|I.|_|||||||
!mf! E2 E2 F2 | (G2 A2) B2 | d4!<(! _c2 | (e6-!<)! | e2 d2) _c2 | A4!>(! B2 | _G6-!>)! | %53
w: An sei- ner|Sei- * te|ging- en|Wir|_ durch die|wei- te|Welt|
w: Thus trip- ping|at * his|side, ’Mid|song|_ _ and|dance and|flow’rs,|
 G2 z2 _G2 |"^cresc." (F2 _G2) F2 | B4 B2 |!f! (f6 | e2) z2 e2 |!>(! =d4 =A2!>)! |!p! =d4 =A2 | %60
w: _ Das|gab _ ein|Blüh’n und|Sing-|en, In|Wie- se,|Wald und|
w: _ We|fared thro’ the|world so|wide,|_ Life|full of|hap- py|
 B6- | B2 z2 B2 | B4"^cresc." B2 | (B2 e2) B2 | (B4 e2) |!f! _g4 z2 | B3 B d2 | f4 e2 | d6- | %69
w: Feld.|_ Auf|al- le|un- * ser’n|We- *|gen|Rief ich dir|jauch- zend|zu:|
w: hours.|_ And|still I|sang * with|heart so|light,|Gai- ly as|we went|by:|
 d2 z2 d2 |"^con affetto" =d4 d2 | (e2 c2) A2 | (G4 F2) | B2[Q:1/4=124] z2"^dim. e rall." A2 | %74
w: _ "Wir|zieh’n dem|Glück * ent-|ge- *|gen, Der|
w: _ “We'll|find the|Land * of|Heart's De-|light, Young|
 G4 G2 |[Q:1/4=122] c4 c2 |[Q:1/4=120] _c6- |[Q:1/4=116] c2 z2!pp! B2 |"^a tempo"[Q:1/4=126] (B6 | %79
w: Lenz und|ich und|du,|_ und|du!”|
w: Love and|you and|I,|_ and|I!”|
 e6- | e6- | e6- | e2) z2 z2 | z6 | z6 | z2 z2!p! c2 | (B2 A2) G2 | B4 A2 | G6 | F2 z2 F2 | d4 c2 | %91
w: _||||||Die|höch- * ste|Hö- he|leuch-|tet, Es|glänzt das|
w: _||||||The|high- * est|peaks are|glow-|ing, The|low- liest|
 (c2 B2) A2 | B6- | B2 z2 B2 |"^cresc." (e2 d2) c2 | B4 A2 | f6 | c2 z2 c2 |!mf! e4 e2 | c4 =d2 | %100
w: tief- * ste|Tal,|_ Dein|Au- * ge,|glück- ge-|feuch-|tet, Ist|wie der|Son- ne|
w: vale’s * a-|light|_ Thy|hap- * py|eyes o’er-|flow-|ing, As|sun- beams|shine so|
!>(! g6- | g2!>)! z2!p! e2 | a4 e2 | (c2 B2) A2 | e4 d2 | z2 z2!pp! d2 |!<(! (c6- | %107
w: Strahl,|_ Die|Ler- che|hebt * die|Schwing- en,|Und|strebt|
w: bright!|_ The|lark in|cir- * cles|wing- ing|Strives|up-|
[Q:1/4=123] c2 =d2) =e2!<)! |"^rit."[Q:1/4=120]!p! f4 c2 |[Q:1/4=116] c2 z2 z c | %110
w: _ _ dem|Him- mel|zu, Und|
w: * * ward|to the|sky, And|
"^a tempo"[Q:1/4=126] (c2 B2) A2 |"^cresc." e4 c2 | (g4 f2) | c2 z2!ff! c2 | (a6- | a6- | %116
w: Lie- * bes-|lie- der|sing- *|en: Der|Lenz|_|
w: ten- * der|songs we’re|sing- *|ing, Young|Love|_|
 a2 e2) c2 | f4 d2 | (c6 |[Q:1/4=124] e6- |[Q:1/4=122]!>(!"^rall." e6- | e)!>)! z z2!p! c2 | %122
w: * * und|ich und|du,|_||* Der|
w: * * and|you and|I,|_||* Young|
[Q:1/4=120] _c6- | c2 z2 _c2 |[Q:1/4=108]!>(! =c6- |[Q:1/4=98] c4!>)!!pp! [Ee]2 | %126
w: Lenz|_ und|ich|_ und|
w: Love|_ and|you|_ and|
"^a tempo"[Q:1/4=126] [Aa]6- | [Aa]6- |!>(! [Aa]6- |[Q:1/4=124] [Aa]6-!>)! | [Aa] z z2 z2 | %131
w: du!|_||||
w: I!|_||||
[Q:1/4=122] z6 | !fermata!z6 |] %133
w: ||
w: ||
V:2
 z2!pp! (.[CE]2 .[CE]2) | (.[CE]2 .[CE]2 .[CE]2) | (.[CE]2 .[CE]2 .[CE]2) | [C=E]2 [CE]2 [CE]2 | %4
 [CG]2 [Cc]2 [CG]2 | [CF]2 [C=E]2 [CF]2 |!<(! [DF]2 [DF]2 [DF]2 | [DA]2!<)! [DG]2 [DF]2 | %8
 [DA]2 [DG]2 [DF]2- | F(FcBFE-) |"_più cresc." [Ee]2 [Ed]2 [Ec]2 | [=EB]2 [EB]2 [EA]2 | %12
!mf! [Ff]2 [Fe]2 [Fd]2 | ([F-f]2 [Fc]2) [Ac]2 | [G=B]2 [GB]2"_dim." [Gc]2 | [Ae]2 [Ac]2 [Ac=d]2 | %16
 z2!>(! [Gc=d]2 [G=B]2 | (=A2!>)! G2)"_dolce  marcato" =e2 | %18
 !tenuto![=E=d]2 !tenuto![Ec]2!pp! !tenuto![E=B]2 | (=d4 c2) | (=B4!<(! =A2- | %21
 A2) [F_A]2 [FG]2!<)! | [=EG=e]2 [EG=d]2"_cresc." [Ec]2 | [G=eg]2 (=d2 c2- | %24
 [=Ac=a]2)"^rit."!>(! Fc- [Fcf]2 | [_Ac_a]2!>)!!pp! (([Gc-g]2 [Fcf]2)) | %26
"^a tempo"[I:staff +1] (E,,E,!<(![I:staff -1]CEAc)!<)! | (([Ece]2 [EBd]2)) [EAc]2 | %28
!f! (([Gc-g]4 [Fcf]2)) | ((([cac']2 [Bgb]2))) [Afa]2 | [Aca]4 [FA]2 | [Gdf]4 ([F-A-d]2 | %32
 [FAc]2)!>(! (EF"_rall."Ac- | .[ce]2) .[Ac]2!>)! .[CA]2 | %34
!p![I:staff +1] (_F,,_F,[I:staff -1]=D!>(!ADA | _c) z"_più rall." [=DA]4!>)! | %36
!pp![I:staff +1] (E,,E,[I:staff -1]_DGDG | [=ce]) z (F2 G2) | %38
!ppp!"^a tempo"[I:staff +1] (A,,E,[I:staff -1]CFEF) |!p! (EF .[Ac]2) .[Ac]2 | %40
 z!<(! (E .[Ae]2) .[Ae]2 | z (=E .[A=e]2) .[Ae]2 | z (F .[Af]2) .[Af]2!<)! | (Ge.c') z (([Ge-g-]2 | %44
!>(! [Aeg])abafe) | (cBAFEC)!>)! |!p! [_CE]2 [CE]2 [CE]2 | [_CE]2 [CE]2 [CE]2 | %48
 [_CEA]2!<(! [CEB]2 [CEA]2 | [EA_c]2 (_CE)!<)! ([Ac-]2 | [_CEc]2) (E_G) [EG]2 | %51
 z2!>(! ([_FA]B) ([FB-]2 | [EB]_cdc_GE)!>)! | z E- [E_G]2 ([E-G]2 | %54
"_cresc." [EF])[EF] [=D_G]2 [DF]2- | [DF][=DB] [FB]2 [EB]2- |!<(! [E-B]=A- [EA=d]2 [Ec]2!<)! | %57
!f! (([Geg]2 [F=df]2)) [Fce]2 |!>(! [=A=d]3 (=DAd-)!>)! |!pp! [E_G=Ad]2 EG[EF]=d- | %60
 [=DFd]2 (D=GF=d) |[I:staff +1] ([=DF][I:staff -1]=ABfb) z | %62
 !tenuto!B2"_cresc." !tenuto!B2 !tenuto![Bc]2 | !tenuto![_GB=d]2 !tenuto![GBe]2 !tenuto![GBf]2 | %64
 !>![Bea]2 [Bea]2 [Be_g]2 |!f! [B_gb]3 (BgB- | [B_gb]2 [Ba]2) [Bg]2 | [_cef]3 (c-[ce]f- | %68
 [Bf]_gagdB) | z [Bd]2 [Bd]2 [Bd] | z [AB=d]2 [ABd]2 [Ad] | z ([Ae]2 [Ac]2 [EA]) | %72
 z [EG]2 [EG]2 [EF] |!>(! z [CEB]2 ([_C-E-B][CEA])[CE]!>)! | %74
"_dim."[I:staff +1] (B,,G,"_e rall"[I:staff -1]B,EG) z |[I:staff +1] (B,,_G,[I:staff -1]CE=A) z | %76
[I:staff +1] (B,,F,[I:staff -1]_CE _A2-) | [_C=DA]2 (G2 F2) |"^a tempo"!<(! z2 ([G,_D]FEF) | %79
 (EF .[Gd]2) .[Gd]2 | z (c!<)! .[gc']2) .[gc']2 |!>(! z (B .[eb]2) .[eb]2 | %82
 z (G .[eg]2) .[eg]2!>)! | z!<(! (F .[Bf]2) .[Bf]2!<)! | z _F!>(! (!>![_c_f]2 ef | %85
 [B=f]edB E2)!>)! |!pp![I:staff +1] (A,,E,C[I:staff -1]Ece) | %87
[I:staff +1] (A,,=E,C[I:staff -1]=Ec=e) | z2 z (cc'g | bafcA[I:staff +1]F) | %90
 ([B,D]F[I:staff -1]Adfa) |[I:staff +1] (B,,A,D[I:staff -1]FAf) | ([Adea]2 [Gg]2) ([FBf]2- | %93
 [FBf]bfe B2) | (eE"_cresc."[de]E[ce]E | [B=e]=E[Be]E[Ae]E) | (fF_eFdF) | ([ca]A[cg]G[cf]F) | %98
!mf! (([=Bg=b]4 [cc']2)) | ([eae']4 [=d=d']2) |!>(! ([cfgc']2 [=B=b]2) (^fg- | %101
 [cgc']!>)![_B_b]=fecB) |!pp! [Ae]2 [Aea]2 [Geg]2 | b4 [Aea]2- | [Aea]2 [Aca]2 [Ada]2 | %105
 [dad']2 ([Aa]2 [=Gd=g]2) |!<(! [cgc']2 z [Gc]2 [Gc] | z ([=EBc]2 [EB=d]2 [EB=e])!<)! | %108
"_rit."!p! z [F=Af]2 [Fc]2 ([Ac-] | [_Ac])!mp! ([Aca]2 gfc) | %110
"^a tempo"[I:staff +1] (E,,E,[I:staff -1]C"_cresc."EAc) | (eE[Bd]E [Ac]2) | ([Gcg]3 cfc- | %113
 [cac']2 [Bgb]2) [Afa]2 |!ff! [ceac']2 (ceac') | z!f! ([=e=e']2 [ff']2 [cc']) | %116
 z ([=d=d']2 [_e_e']2 [Aea]) | z ([=Af=a]2 [Bdfb]2 [Fdf]) | z ([Ac]EFAc- | %119
 [ce]E"_dim.      e"[Bd]E[Ac]E |!>(!"_rall." BEAEGE | AE!>)!FE=DE) | %122
!pp![I:staff +1] (_F,,_F,[I:staff -1]=DADA) | _c z [=DA]4 | %124
!ppp![I:staff +1] (E,,E,[I:staff -1]_DGDG | [=ce]) z (F2 G2) | %126
"^a tempo"[I:staff +1] (A,,E,[I:staff -1]CFEF | EF .[Ac]2) .[Ac]2 | z (E .[Ae]2) .[Ae]2 | %129
 z (_F .[A_f]2) .[Af]2 | .[cac'] z z2 z2 | z (C .[Ac]2) .[Ac]2 | !fermata!z6 |] %133
V:3
"_sempre con Pedale" z6 |!ped! z6 | z6!ped-up! | z6 | A,6- | A,2 z2 z2 | z6 | (B,6- | %8
 [E,B,]4) (([B,,A,]2 | [E,G,]4)) [D,G,]2 | ([C,-G,]6 | [C,A,]6) | [D,A,]6 | [=D,A,C]6 | %14
 ([E,-G,-=B,]4 [E,G,C]2) | ([F,-A,-E]4 [F,A,=D]2) | ([G,-=D]6 | [G,=B,]4) G,2 | %18
 [C,G,]2 [C,G,]2 [C,G,]2 | [C,^G,]2 [C,G,]2 [C,G,]2 | [C,=A,]2 [C,A,]2 [C,A,]2 | %21
 [C,=B,]2 [C,B,]2 [C,B,]2 | [C,_B,]2 [C,B,]2 [C,B,]2 |!ped! C,,2 [C,B,]4!ped-up! | %24
!ped! C,,2 [C,=A,]4!ped-up! |!ped! =D,,2 [=D,_A,C]4!ped-up! |!ped! x6!ped-up! | %27
 ([E,-C]2 [E,B,D]2) [E,A,C]2 |!ped! =D,,2 [=D,A,C]4!ped-up! |!ped! [B,,,B,,]2 [F,A,=D]4!ped-up! | %30
!ped! E,,2 [E,E]4!ped-up! |!ped! E,,2 [E,E]4!ped-up! |!ped! (A,,E,C) z z2!ped-up! | z2 .E2 .E,2 | %34
!ped! x6 | z2!ped-up! _F,4 |!ped! x6 | z2!ped-up! E,4 |!ped!!<(! x6!ped-up!!<)! | z6 | (C6 | %41
 [=B,=D]6 | [_B,_D]6) | [E,D]6 |!ped! (A,,E,C) z!ped-up! z2 | z6 | z6 | (A,4 _G,2 | F,6) | %49
!ped! (_D,,A,, F,2)!ped-up! z2 |!ped! (_G,,_G,) z2!ped-up! z2 |!ped! (_G,,_D, B,2)!ped-up! _G,2 | %52
 (_C,2- [C,_G,]4) | (_C2 B,2 =A,2 | _A,6 | =G,4 _G,2 | F,3) (F,,C,=A, | E2) z2 =A,2 | %58
!ped! (^F,,=D,=A,) z!ped-up! z2 |!ped! (=F,,=F,=A,) z!ped-up! [F,A,]2 | %60
!ped! (B,,F,) z2!ped-up! z2 | x6 | [E_G]2 [EG]2 [EG]2 | _D2 D2 D2 | [CE_G]2 [CEG]2 [CEG]2 | %65
!ped! (A,,E,C) z z2!ped-up! |!ped! (D,B, D4)!ped-up! |!ped! (D,A, F2) D2!ped-up! | %68
 (!courtesy!_G,2- [G,D]4) | (_G2 F2 =E2) |!ped! [F,F]2 (B,2- [F,B,]2)!ped-up! | %71
!ped! ([E,C]2 E2) C2!ped-up! |!ped! C,2 (A,2- [C,A,]2)!ped-up! |!ped! F,,2 F,4!ped-up! | %74
!ped! x2 x!ped-up! x x2 |!ped! x2 x!ped-up! x x2 |!ped! x2 x!ped-up! x z2 | (B,,,4 B,,2) | %78
!ppp!!ped! E,,B,, z2!ped-up! z2 | z6 | [EG]6 | [DEG]6 | [B,DE]6 | [A,B,D]6 | (!>![A,_C=D]6 | %85
 [E,G,_D]4) ([G,D]E,) |!ped! x6!ped-up! |!ped! x6!ped-up! |!ped! (A,2 [A,-C-G]4!ped-up! | %89
 [A,CF]6) | x6 | x6 | z (E,B,DA,D- | [E,G,D]4) (DE | C) z z2 z2 | ([C,-B,]4 [C,A,]2) | [D,A,]6 | %97
 [=D,A,C]6 | z (E,CG) z2 | z (F,C=D A2) | z (G,=DF) z2 | (E,_DG) z z2 | %102
!ped! [CE]2 [CE]2 [CE]2!ped-up! |!ped! [_G,CE]2 [G,CE]2 [G,CE]2!ped-up! | %104
!ped! [F,A,E]2 [F,A,E]2!ped-up! [F,A,D]2 | (_F,B, D2) [=E,B,D]2 | [=E,B,C]2 [E,B,C]2 [E,B,C]2 | %107
 [C,G,C]2 [C,G,]2 [C,G,C]2 | [C,,C,]2 ([C,=A,]2 C2) | [=D,,=D,]2 [_A,CF]4 |!ped! x6!ped-up! | %111
 ([E,-C]2 [E,B,D]2) [A,C]2 | (=D,A,C) z [A,CF]2 | (B,,F,A,=D) z2 | %114
!ped! [E,,E,]2[K:treble] [EA]4!ped-up! | [=EAc]2 [FAc]2 [CA]2 | [=DAc]2 [_EAc]2[K:bass] [E,C]2 | %117
!ped! [E,G,D]2 E,,2 [E,G,D]2!ped-up! |!ped! (A,,E,C) z!ped-up! z2 | z6 | (D2 C2 =B,2 | C2) z2 z2 | %122
!<(!!ped! x6!<)! | z2!ped-up! _F,4 |!<(!!ped! x6!<)! | z2!ped-up! E,4 | %126
!pp!!ped!!<(! x3!ped-up! x3!<)! |!>(! z6 | (C6 | [_C=D]6)!>)! |!pp! .[A,EA] z z2 z2 | %131
!ppp! ([A,,E,]6 |!p! .A,,,2) z2 !fermata!z2 |] %133
V:4
 x6 | x6 | x6 | x6 | x6 | x6 | x6 | x6 | x6 | D4 z2 | x6 | x6 | x6 | x6 | x6 | x6 | x6 | F4 [FG]2 | %18
 x6 | =E2 E2 E2 | F2 F2 F2- | F2 x4 | x6 | x2 =E4 | x2 F2- x2 | x6 | x6 | x6 | x6 | x6 | x6 | x6 | %32
 x6 | x6 | x6 | x6 | x6 | x2 D4 | x6 | x6 | x6 | x6 | x6 | x6 | x6 | x6 | x6 | x6 | x6 | x6 | x6 | %51
 x6 | x6 | x6 | x6 | x6 | x6 | x6 | x6 | x6 | x6 | x6 | x6 | x6 | x6 | x6 | x6 | x6 | x6 | x6 | %70
 x6 | x6 | x6 | x6 | x6 | x6 | x6 | x2 [A,=D]4 | x6 | x6 | x6 | x6 | x6 | x6 | x6 | x6 | x6 | x6 | %88
 x6 | x6 | x6 | x6 | x6 | x6 | x6 | x6 | x6 | x6 | x6 | x6 | x6 | x6 | x6 | [Be]2 [Be]2 x2 | x6 | %105
 x6 | x6 | x6 | x6 | x6 | x6 | x6 | x6 | x6 | x6 | x6 | x6 | x6 | x6 | x6 | x6 | x6 | x6 | x6 | %124
 x6 | x2 D4 | x6 | x6 | x6 | x6 | x6 | x6 | x6 |] %133
V:5
 x6 | x6 | x6 | x6 | x6 | x6 | x6 | x6 | x6 | x6 | x6 | x6 | x6 | x6 | x6 | x6 | x6 | x6 | x6 | %19
 x6 | x6 | x6 | x6 | x6 | x6 | x6 | x6 | x6 | x6 | x6 | x6 | x6 | x6 | x6 | x6 | x x5 | x6 | x x5 | %38
 x3 x3 | x6 | x6 | x6 | x6 | x6 | x6 | x6 | x6 | x6 | x6 | x6 | x6 | x6 | x6 | x6 | x6 | x6 | x6 | %57
 x6 | x6 | x6 | x6 | x6 | x6 | x6 | x6 | x6 | x6 | x6 | x6 | x6 | x6 | x6 | x6 | x6 | x6 | x6 | %76
 x6 | x6 | x6 | x6 | x6 | x6 | x6 | x6 | x6 | x6 | x3 x3 | x3 x3 | A,-C- x4 | x6 | x6 | x6 | x6 | %93
 x6 | x6 | x6 | x6 | x6 | x6 | x6 | x6 | x6 | x6 | x6 | x6 | x6 | x6 | x6 | x6 | x6 | x6 | x6 | %112
 x6 | x6 | x2[K:treble] x4 | x6 | x4[K:bass] x2 | x6 | x6 | x6 | x6 | x6 | x6 | x6 | x6 | x6 | x6 | %127
 x6 | x6 | x6 | x6 | x6 | x6 |] %133

